X:1
T:Title
%%score { ( 1 3 4 ) | ( 2 5 ) }
L:1/8
M:4/4
K:Ab
V:1 treble nm="Grand Piano"
V:3 treble 
V:4 treble 
V:2 bass 
V:5 bass 
V:1
 z4 z2[Q:1/4=110] C[B,D] | [CE]2 A2 A2 G2 | [CA]6 [CA][CG] | F2 B2 B2 [E=A]2 | [DB]6 [DB][DA] | %5
 G2 d2 d2 e2 | d2 c2 [DEB]2 [CEA]2 | [EG]2 [EF]2 [=Dc]2 [DB]2 | E6 z2 | c2 B2 G,2 G,2 | %10
 [DB]2 [CA]2 A,2 A,2 | A,2 z G [A,FA]2 [Fd]2 | [Ec]6 z2 | [Ee]2 [Ec]2 [EA]2 [CE]2 | [DF]6 z2 | %15
 E2 A2 c2 B2 |[M:3/4] A2- [DA-]2 [CA]2 |] %17
V:2
 z4 z2 [A,,A,][A,,A,] | [A,,A,]2 [C,A,C]2 [E,A,C]2 [E,B,D]2 | [A,,A,]6 [A,,A,][A,,A,] | %3
 [D,A,D]2 [D,F,D]2 [D,F,D]2 [C,F,]2 | [B,,F,]6 [B,,B,][B,,B,] | %5
 [E,B,E]2 [E,B,E]2 [F,B,E]2 [G,B,E]2 | [A,E]4 A,,2 A,,2 | [B,,B,]2 [B,,B,]2 [B,,B,]2 [B,,B,]2 | %8
 [E,G,]6 z2 | [E,G,E]2 [E,G,D]2 E,2 E,2 | [A,,A,]2 [A,,A,]2 A,,2 A,,2 | D,2 z E D,2 [F,A,]2 | %12
 A,2 E,2 A,,2 [A,,A,][B,,A,] | [C,A,]2 [A,,A,]2 [C,A,]2 [A,,A,]2 | [D,A,]2 D,2 D,2 [D,A,D][D,A,D] | %15
 [E,A,C]2 [E,A,C]2 [E,A,E]2 [E,G,D]2 |[M:3/4] z2 F,2 E,2 |] %17
V:3
 x8 | x8 | x8 | x8 | x8 | x8 | x8 | x8 | x8 | x8 | x8 | [DF]4 z4 | z2 A,2 A,2 [Ec][Ed] | x8 | %14
 z2 A,2 A,2 GA | x8 |[M:3/4] [A,C]2 z2 z2 |] %17
V:4
 x8 | x8 | x8 | x8 | x8 | x8 | x8 | x8 | x8 | x8 | x8 | z2 A,2 z4 | x8 | x8 | x8 | x8 | %16
[M:3/4] x6 |] %17
V:5
 x8 | x8 | x8 | x8 | x8 | x8 | x8 | x8 | x8 | x8 | x8 | z2 D,2 z4 | x8 | x8 | x8 | x8 | %16
[M:3/4] A,,6 |] %17

